icon/lg/basekit.svg

<?xml version="1.0" encoding="UTF-8"?>
<svg viewBox="0 0 256 217" version="1.1" xmlns="http://www.w3.org/2000/svg" xmlns:xlink="http://www.w3.org/1999/xlink" preserveAspectRatio="xMidYMid" height="1em" width="1em">
  <g>
    <path d="M0,216.305618 L0,0 L256,0 L256,216.305618 L0,216.305618 Z M111.264503,159.044573 C130.827506,159.044573 140.914596,146.828829 140.914596,131.406583 C140.914596,118.7328 132.355797,108.19676 121.351594,106.517055 C130.9803,104.531991 138.927806,95.8283362 138.927806,83.1545528 C138.927806,69.5645771 128.993395,57.1961528 109.583302,57.1961528 L55.9378984,57.1961528 L55.9378984,159.044573 L111.264503,159.044573 Z M201.923596,159.044573 L165.680899,106.426966 L201.8197,57.1961528 L175.073395,57.1961528 L138.642697,106.426966 L146.951594,118.121967 L175.073395,159.044573 L201.923596,159.044573 Z M105.762402,116.747736 C114.168406,116.747736 118.753395,121.939416 118.753395,128.352647 C118.753395,135.682071 113.862702,139.957559 105.762402,139.957559 L77.6406004,139.957559 L77.6406004,116.747736 L105.762402,116.747736 Z M104.845404,76.2831676 C112.181501,76.2831676 116.766605,80.7114499 116.766605,86.9718867 C116.766605,93.5379128 112.181501,97.6607209 104.845404,97.6607209 L77.6406004,97.6607209 L77.6406004,76.2831676 L104.845404,76.2831676 Z" fill="#02161F"/>
  </g>
</svg>

<svg width="256" height="217" xmlns="http://www.w3.org/2000/svg" preserveAspectRatio="xMidYMid"><path d="M0 216.306V0h256v216.306H0Zm111.265-57.261c19.563 0 29.65-12.216 29.65-27.638 0-12.674-8.56-23.21-19.563-24.89 9.628-1.985 17.576-10.689 17.576-23.362 0-13.59-9.935-25.959-29.345-25.959H55.938v101.849h55.327Zm90.659 0-36.243-52.618 36.139-49.23h-26.747l-36.43 49.23 8.309 11.695 28.121 40.923h26.85Zm-96.162-42.297c8.406 0 12.991 5.191 12.991 11.605 0 7.33-4.89 11.605-12.99 11.605H77.64v-23.21h28.121Zm-.917-40.465c7.337 0 11.922 4.428 11.922 10.689 0 6.566-4.585 10.689-11.922 10.689H77.641V76.283h27.204Z" fill="#02161F"/></svg>
